X:3288
T:Con McGinley's #1
M:4/4
L:1/8
S:Altan
K:A
~c2cA B=G~E2|EF=GA B2Bd|cdBc Aceg|afed cAAA::\
agab aece|(3fga ec BEGB|agab aece|1(3fga ed cA A2:|2(3fga bg afed||


